assets/icons/monitor-filled.svg

<?xml version="1.0" encoding="UTF-8" standalone="no"?>
<svg
   viewBox="0 0 24 24"
   height="24"
   width="24"
   version="1.1"
   id="svg8"
   sodipodi:docname="monitor-filled.svg"
   inkscape:version="1.2 (1:1.2.1+202207142221+cd75a1ee6d)"
   xmlns:inkscape="http://www.inkscape.org/namespaces/inkscape"
   xmlns:sodipodi="http://sodipodi.sourceforge.net/DTD/sodipodi-0.dtd"
   xmlns="http://www.w3.org/2000/svg"
   xmlns:svg="http://www.w3.org/2000/svg">
  <defs
     id="defs12" />
  <sodipodi:namedview
     id="namedview10"
     pagecolor="#ffffff"
     bordercolor="#666666"
     borderopacity="1.0"
     inkscape:pageshadow="2"
     inkscape:pageopacity="0.0"
     inkscape:pagecheckerboard="0"
     showgrid="true"
     inkscape:snap-page="true"
     inkscape:zoom="28"
     inkscape:cx="10.75"
     inkscape:cy="12.035714"
     inkscape:window-width="1920"
     inkscape:window-height="1043"
     inkscape:window-x="0"
     inkscape:window-y="0"
     inkscape:window-maximized="1"
     inkscape:current-layer="svg8"
     inkscape:showpageshadow="2"
     inkscape:deskcolor="#d1d1d1">
    <inkscape:grid
       type="xygrid"
       id="grid823" />
    <inkscape:grid
       type="xygrid"
       id="grid825"
       dotted="true"
       spacingx="0.5"
       spacingy="0.5"
       empspacing="10" />
  </sodipodi:namedview>
  <path
     id="path490"
     style="color:#000000;fill:#808080;-inkscape-stroke:none"
     d="M 5.4550781 5 C 4.4865012 5.00898 3.7372567 5.0732708 3.1171875 5.4453125 C 2.703808 5.6933404 2.3972492 6.101222 2.2285156 6.6074219 C 2.0597825 7.1136218 2 7.7222262 2 8.5 L 2 14 L 3 14 L 4 14 L 6.6386719 14 L 8.5253906 8.3417969 C 8.5944106 8.1348202 8.7896597 7.99649 9.0078125 8 C 9.2253333 8.0034841 9.4156457 8.147204 9.4785156 8.3554688 L 11.777344 16.017578 L 13.539062 11.806641 C 13.711928 11.393501 14.298975 11.398467 14.464844 11.814453 L 15.337891 14 L 15.5 14 L 21 14 L 22 14 L 22 8.5 C 22 7.7222262 21.94022 7.1136218 21.771484 6.6074219 C 21.602754 6.101222 21.296194 5.6933404 20.882812 5.4453125 C 20.056055 4.9492572 18.999994 5 17.5 5 L 6.5 5 C 6.125002 5 5.7779372 4.99701 5.4550781 5 z M 8.9746094 10.15625 L 7.4746094 14.658203 C 7.4064774 14.862423 7.2152848 15.000113 7 15 L 3 15 L 2 15 L 2 17.5 C 2 18.277773 2.0597824 18.88638 2.2285156 19.392578 C 2.3972492 19.89878 2.703808 20.306659 3.1171875 20.554688 C 3.9439465 21.050742 5.0000075 21 6.5 21 L 17.5 21 C 18.999994 21 20.056054 21.050738 20.882812 20.554688 C 21.296194 20.306659 21.602754 19.89878 21.771484 19.392578 C 21.940218 18.88638 22 18.277773 22 17.5 L 22 15 L 21 15 L 15 15 C 14.795294 15.00021 14.611136 14.875631 14.535156 14.685547 L 13.990234 13.322266 L 12.162109 17.693359 C 11.981977 18.128663 11.354834 18.096137 11.220703 17.644531 L 8.9746094 10.15625 z " />
</svg>

<svg height="24" width="24" xmlns="http://www.w3.org/2000/svg"><path style="color:#000;fill:gray;-inkscape-stroke:none" d="M5.455 5c-.968.009-1.718.073-2.338.445-.413.248-.72.656-.888 1.162C2.059 7.114 2 7.722 2 8.5V14h4.639l1.886-5.658a.5.5 0 0 1 .954.013l2.298 7.663 1.762-4.211a.5.5 0 0 1 .926.007L15.338 14H22V8.5c0-.778-.06-1.386-.229-1.893-.168-.506-.475-.914-.888-1.162C20.056 4.95 19 5 17.5 5h-11c-.375 0-.722-.003-1.045 0zm3.52 5.156-1.5 4.502A.5.5 0 0 1 7 15H2v2.5c0 .778.06 1.386.229 1.893.168.506.475.914.888 1.162C3.944 21.05 5 21 6.5 21h11c1.5 0 2.556.05 3.383-.445.413-.248.72-.656.888-1.162.17-.507.229-1.115.229-1.893V15h-7a.5.5 0 0 1-.465-.314l-.545-1.364-1.828 4.371a.5.5 0 0 1-.941-.048l-2.246-7.489z"/></svg>
